X: 2636
T: Bancroft's Descent
R: jig
M: 6/8
K: Emajor
f||gee ~b2a|gba gee|fBB ~a2g|fge fBB|
eBB ~e2f|gba gag|fag fge|fBB e2f||
gee ~b2a|gba gee|fBB ~a2g|fge fBB|
eBB ~e2f|gba gbg|fag fge|fBB edc||
Bee dfa|geb gee|FGA cde|fge def|
eBB dBa|gba gag|fag fge|fBB edc||
Bee dfa|geb gee|FGA cde|fdB AGF|
EGB cde|def efa|gba gag|fdB e3||

